X:1
T:Title
L:1/8
Q:1/4=100
M:4/4
K:Eb
V:1 treble nm="Grand Piano"
V:1
 G2 G2- G G2 B | A3 G- G F2 E | F2 F2- F F2 A | G3 F- F E2 D | E3 E- E E2 G | F3 E- E D2 C | %6
w: ????~???? * * * *||||||
 D3 D- D E2 F | G8 | G2 G2- G G2 B | A3 G- G F2 E | F2 F2- F F2 A | G3 F- F E2 D | E3 E- E E2 G | %13
w: |||||||
 F3 E- E D2 C | D3 D- D E2 D | C8 | z2 FG A2 d2 | c4 G4- | G2 FG A2 c=B | e3 d c4- | c2 FG A2 d2 | %21
w: ||||||||
 c4 G4- | G2 BB B2 Bc | A3 F G4 | z2 FG A2 d2 | c4 G4- | G2 FG A2 c=B | e3 d c4- | c2 FG A2 d2 | %29
w: ||||||||
 c4 G4- | G2 FG A2 GF | G3 G c4 |] %32
w: |||

